X:13
T:White Oak Swamp
C:Norman Blake
N:Transcribed by Richard A Taylor
R:bluegrass
L:1/8
Q:1/4=120
M:4/4
K:G
GA |: "G"Bd BA GA GE | DE DB, D4 | DE DB, DE G2 | [AG][BG] [BG][BG] [BG][BG] GA | 
|Bd BA GA GE | DE DB, D4 | DE GA "D"BG AF |1 G6 GA :|2 G8 |]
|: "G"bb bb ba gb | "Em"ag ea ge dg | "C"ee ee ed ce | "G"d8 | 
|"G"bb bb ba gb | "Em"ag ea ge dg | "C"ed Be "D"dB AF | "G"G8 :| 

